packages/eui/src/components/icon/svgs/thumb_down.svg

<svg width="16" height="16" viewBox="0 0 16 16" xmlns="http://www.w3.org/2000/svg">
<path d="M11.9999 7.00037L12.9999 7.00037V9.00037L11.9999 9.00037V7.00037Z" />
<path fill-rule="evenodd" clip-rule="evenodd" d="M7.80071 14.2191C7.53408 15.0278 6.50475 15.266 5.91008 14.6566C5.00031 13.7241 4.74169 12.3355 5.25481 11.1381L5.73918 10.0062H3.0009C1.77338 10.0062 0.835103 8.91041 1.02434 7.69763L1.74016 3.12048C1.93031 1.90355 2.97818 1.00623 4.20989 1.00623L7.19817 1.00623C8.19291 1.00623 9.17042 1.23623 10.0566 1.67224C10.1941 1.28431 10.5629 1.00623 10.998 1.00623L13.998 1.00623C14.5503 1.00623 14.998 1.45394 14.998 2.00623L14.998 10.0062C14.9978 10.5584 14.5502 11.0062 13.998 11.0062H10.998C10.5615 11.0062 10.1911 10.7261 10.0546 10.3363C9.22335 10.9492 8.59491 11.8072 8.2675 12.8002L7.80071 14.2191ZM13.998 2.00623L10.998 2.00623L10.998 10.0062H13.998L13.998 2.00623ZM6.6259 13.9584C6.69661 14.0306 6.81865 14.0025 6.85051 13.9066L7.31829 12.4877C7.77871 11.0911 8.73405 9.91584 9.99797 9.1781L9.99797 2.77966C9.15214 2.27594 8.18583 2.00623 7.19817 2.00623L4.20989 2.00623C3.47087 2.00623 2.84155 2.54462 2.72747 3.27478L2.01262 7.85193C1.91807 8.45828 2.38717 9.00623 3.0009 9.00623H6.49797C6.66598 9.00623 6.82243 9.09062 6.91497 9.23083C7.00736 9.37098 7.02387 9.54817 6.95793 9.70251L6.17375 11.5316C5.81986 12.3574 5.9985 13.3153 6.6259 13.9584Z" />
</svg>

<svg xmlns="http://www.w3.org/2000/svg" width="16" height="16" viewBox="0 0 16 16">
  <path d="M12 7h1v2h-1V7Z"/>
  <path fill-rule="evenodd" d="M7.8 14.22a1.135 1.135 0 0 1-1.89.437 3.221 3.221 0 0 1-.655-3.519l.484-1.132H3.001a2 2 0 0 1-1.977-2.308L1.74 3.12a2.5 2.5 0 0 1 2.47-2.114h2.988c.995 0 1.972.23 2.859.666a.999.999 0 0 1 .941-.666h3a1 1 0 0 1 1 1v8a1 1 0 0 1-1 1h-3a1 1 0 0 1-.943-.67A5.012 5.012 0 0 0 8.268 12.8L7.8 14.22Zm6.198-12.214h-3v8h3v-8ZM6.626 13.958c.07.073.193.044.225-.051l.467-1.42a6.012 6.012 0 0 1 2.68-3.309V2.78a5.472 5.472 0 0 0-2.8-.774H4.21a1.5 1.5 0 0 0-1.483 1.269l-.714 4.577A1 1 0 0 0 3 9.006h3.497a.5.5 0 0 1 .46.697l-.784 1.829a2.222 2.222 0 0 0 .452 2.426Z" clip-rule="evenodd"/>
</svg>
